X:1
T:A Smile and a Tear
T:A Smile and a Tear
T:Harriett Abrams
T:M. P. Andrews, Esq.
T:My parents, tho' humble, were happy and good, We could boast of our honour, if not of our blood; My lover, ah! how the sad tale shall I tell, for his country he fought - for his country he fell. He was brave, he was true, to my soul he was dear, his fame claims a smile, but it shines tro' a tear. In vain would I picture my agonized heart, My parents' soft soothings no balm could impart; They sunk o'er the child whom they could not relieve, And the cold hand of death left me only to grieve. Thus fated to suffer, that moment draws near, When you'll neither distinguish a smile nor a tear.
T:Public Domain - https://imslp.org/wiki/A_Smile_and_a_Tear_(Abrams,_Harriett)
C:Harriett Abrams
Z:M. P. Andrews, Esq.
Z:Public Domain - https://imslp.org/wiki/A_Smile_and_a_Tear_(Abrams,_Harriett)
%%score 1 { 2 | 3 }
L:1/8
Q:1/4=92
M:2/4
K:F
V:1 treble nm="Soprano"
V:2 treble nm="Piano"
V:3 bass 
V:1
"^Andante" z | z4 | z4 | z4 | z4 | z4 | z2 z c | c2 F A | G F z F | B d2 f | c2 z B | AG F E | %12
w: ||||||You|own I'm com\-|pla\- cent, but|tell me I'm|cold. then|must * I my|
 F2 G A | B/ d3/2 z E | F2 z F | F>G A F | BG E z/ G/ | G>A B d | c2 z c | f/e/f/c/ A A | %20
w: youths ear\- ly|sor\- rows un\-|fold must|wa- * ken re\-|mem\- bran\- ce to|Joys * that are|fled now|Hope * * * is ex\-|
 c/=B/c/A/ F F | C2 C C | !fermata!D2 d3/2 c/ | c2 c/A/ c/A/ | F2 F3/2 F/ | G<B A/<c/ B/<d/ | %26
w: stin- * * * guish'd and|pas\- sion is|dead I have|lost in * lifes *|morn, all that|life * cold * en- *|
 G2 z c | f>e f c/B/ | A>B !fermata!c F | A<c G3/2 c/ | F2 z!D.C.! |] %31
w: dear and|if * I seem *|cheer- * full, I|smile * thro' a|tear|
V:2
 c | [FAc]2 [CF] [FA] | [B,EG] [A,CF] z F | [FB] [Bd]2 [df] | c/f/[fa]/[eg]/ [df]/[ce]/[Bd]/[Ac]/ | %5
 [Ec]/[DB]/[CA]/[B,G]/ [B,G]/[A,F]/[A,F]/[G,E]/ | [G,B,E]2 Fc | [CFAc]2 [CF] [FA] | %8
 [B,EG] [A,CF] z [CF] | [FB] [Bd]2 [df] | [FAc]2 z [DB] | [CA][B,G] [A,F][G,E] | [B,DF]2 [CG][FA] | %13
 [GB]/ [Bd]3/2 z [B,E] | [A,CF]2 z [A,F] | [A,CF]2 [FA] [CF] | [CEGB]2 [EG] z | %17
 [EG][FA] [GB] [EGBd] | [FAc]2 z [Ac] | [Acf]2 [FA] [FA] | [Ac]2 [FA][FA] | [GB]2 [GB] [GB] | %22
 [FA]2 [EGBd]3/2 [Ac]/ | [Ac]2 [Ac][Ac] | [A,CF]2 [A,CF] [A,CF] | [EG]2 [FA] [GB] | [CEG]2 z [Ac] | %27
 [Af]2 [Af][EGc] | [FA]>[GB] !fermata![Ac] F | [FAc]2 [EGc]2 | [A,CF]2 z |] %31
V:3
 F, | F,2 F,,F, | C,F, z F, | B,B,,D,B,, | F,2 z2 | z B,, C,C,, | F,,F,F,, z | F,F,, A,,F,, | %8
 C,F, z F, | B,B,, D,B,, | F,C, F,, z | z2 z C, | D,2 B,,A,, | G,,B,, C,C,, | F,,C,/A,,/ F,, z | %15
 F,2 F, F, | C,2 C, z | C,3 C, | F,2 z F, | F,2 F,F, | F,2 F,F, | C,2 C, C, | D,2 E,3/2 F,/ | %23
 F,2 F,F, | F,2 F, F, | C,2 C, C, | C,2 z F, | F,2 F,F, | F,>E, !fermata!F, z | C,2 C,2 | F,,2 z |] %31

